!!!COM: Anon.
!!!OTL: Iyo-Bushi
!!!OTC: Japanese Popular Music: A Collection of The Popular Music of Japan Rendered in to the Staff notation.
!!!CNT: Nippon, Japanese
!!!TXO: Nippon, Japan
!!!OCY: Nippon, Japan
!!!ODT: <1892///
!!!PSR: S. Miki & Co.
!!!PSP: Osaka, Nippon
!!!PDT: 1892///
!!!PPE: Y Nagai & K. Kobatake
!!!PED: Revised Second Edition
!!!PPG: page 72-73
!! Moderato
**kern	**silbe
*ICstr	*Lnippon
*ICvox	*
*Ikoto	*
*Ivox	*
*clefG2	*
*k[]	*
*M4/4	*
8cc	.
=1	=1
4B	.
4a	.
8b	.
8a	.
8b	.
8b	.
=2	=2
4B	.
4a	.
4b	.
8b	.
8b	.
=3	=3
4B	.
4a	.
4b	.
4r	.
=4	=4
(4a	.
8f	.
8e)	.
4.a	.
8a	.
=5	=5
(4b	.
8a	.
8b)	.
4B	.
4r	.
=6	=6
4cc	.
(4cc	.
4b	.
4a)	.
=7	=7
(4f	.
4e)	.
(4a	.
8f	.
8a)	.
=8	=8
(4e	.
4c	.
4B)	.
8ff	.
8ee	.
=9	=9
4dd	.
4b0	.
4a	.
8a	.
8a	.
=10	=10
4e	.
4g	.
2a	.
=11	=11
4r	.
2a	.
4r	.
=12	=12
(4a	.
8f	.
8e)	.
4a	.
8r	.
8a	.
=13	=13
(4b	.
4a	.
4b)	.
4cc	.
=14	=14
(4ee	.
4cc	.
4b)	.
8e	.
8b	.
=15	=15
8cc	.
8cc	.
8b	.
8a	.
4b	.
4aa	.
=16	=16
4ff	.
4ee	.
8ff	.
8ee	.
8dd	.
8ee	.
=17	=17
4ff	.
4ee	.
2ff	.
=18	=18
4e	.
2ff	.
8cc	.
8b	.
=19	=19
(4a	.
4f)	.
2f	.
=20	=20
(4ff	.
4ee	.
4dd)	.
4r	.
=21	=21
(4.ee	.
8dd)	.
(4ee	.
4ff)	.
=22	=22
2aa	.
(4aa	.
4ff)	.
(4.ee	.
8cc)	.
4ee	.
4ff	.
=23	=23
8ee	.
8r	.
8cc	.
8e	.
8f#	.
8e	.
8c	.
8B	.
=24	=24
8e	.
8cc	.
8b	.
8a	.
2f	.
=25	=25
(4a	.
8f	.
8e)	.
8a	.
8a	.
8b	.
8a	.
=26	=26
(4b	.
4a	.
4.b)	.
8cc	.
=27	=27
4ee	.
4cc	.
8ee	.
8b	.
8b	.
8a	.
=28	=28
4f	.
4e	.
8e	.
8dd	.
8r	.
8dd	.
=29	=29
8ee	.
8ee	.
8dd	.
8ee	.
8e	.
8ee?	.
8r	.
8ff	.
=30	=30
4.e 4.ee	.
8ff#	.
4cc	.
8cc	.
8ee	.
=31	=31
4ff#	.
8b	.
8g	.
4f?	.
8B	.
8e	.
=32	=32
4f#	.
8f#	.
8g	.
4b	.
8g	.
8f#	.
=33	=33
8e	.
8g	.
8f#	.
8e	.
4c	.
4B	.
=34	=34
8e	.
8ee	.
8c	.
8cc	.
8e	.
8ee	.
8cc	.
8b	.
=35	=35
8a	.
8cc	.
8b	.
8a	.
8f	.
8r	.
8c	.
8B	.
=36	=36
8r	.
4cc	.
8a	.
4b	.
8cc	.
8b	.
=37	=37
4B	.
4a	.
4b	.
8r	.
8b	.
=38	=38
4B	.
4a	.
4B 4b	.
8r	.
==	==
*-	*-
!!!ENC: David Huron
!!!RDT: 2000/1/30
!!!EEV: Release 1.0
!!!ELF: 20/28
!!!YER: 2000/2/1
!!!YEM: Copyright David Huron, 2000
!!!YEN: United States of America
